X: 13
T: JIGS: Frieze Breeches Set
T: Frieze Breeches / Cúnla
C: C: Trad.; S: Various
C: Set Leaders: Oleg, Anton, André
Z: Anton Zille ed., Oleg Naumov arr.; Jdharv / ceolachan at The Session
N: https://thesession.org/members/26966/sets/99682
R: Jig
M: 6/8
L: 1/8
Q: 3/8=116
K: Dmaj
E|:"D"FED EFG|AdB cAG|"D"A2A BAG|"G"FAF "A"GED|
"D"FED EFG|AdB "C"=cAG|"D/F#"FAF "G"GE"A"A|1 "D"DED D2E:|2 "D"DED D2A||
|:"D"d2e f2d|"A"e2d cAG|"D"A2A BAG|"G"FAF "A"GED|
"D"d2e f2d|e2d "A"cAG|"D/F#"FAF "G"GE"A"A|1 "D"DED DFA:|2 "D"DED D2D||
|:"D"DED "C"=c3|AdB =cAG|"D (G/B)"ABc dfd|"D (G)"dfd "A"dAF|
"D"DED "C"=c3|AdB =cAG|"D/F#"FAF "G"GE"A"A|1 "D"DED D2D:|2 "D"DED D2A||
|:"D"d2e fdd|Add fdd|"Asus4"c2d eAA|"A"fed ecA|
"D"d2e fdd|Add fdd|"D"faf "G (Dsus2)"gec|1 "A"dfe d2A:|2 "A"dfe "D"d2e||
|:"D"fed edc|"D/B"ded cAG|"D/F#"A2A BAG|"G"FAF "A"GED|
"D"fed edc|"Bm"ded cAG|"Asus4"FAF GEA|1 "A"DED "D"D2e:|2 "A"DED "D"D2||
T: Saddle the Pony
K: Gmaj
D|:"G"GBA G2B|def gdB|GBA G2B|"C"AFD "D"AFD|
"G (Em)"GBA G2B|"G (C)"def gfg|"Am"e/f/ge dBA|1 "D"BGG G2D:|2 "D"BGG "D"GBd||
|:"Em"efe edB|"D"def gfg|"C"efe edB|"D"dBA ABd|
"Em"efe edB|"D"def gfg|"C (Am)"e/f/ge "Bm"dBA|1 "C"BGG "D"G2d:|2 "C"BGG "D"G2D||

